X:1
T:Title
%%score { ( 1 3 ) | ( 2 4 ) }
L:1/8
M:4/4
K:Ab
V:1 treble nm="Grand Piano"
V:3 treble 
V:2 bass 
V:4 bass 
V:1
 z4 z2[Q:1/4=100] E2 | A4 z4 | c4 z4 | c2 B2 B3 d |[M:3/4] d2 c2 c2 |[M:1/4] E2 |[M:4/4] A4 z4 | %7
 c4 z4 | [Ee]3 [Fd] [Ec]2 [GB]2 |[M:3/4] A6 |] %10
V:2
 z4 z2 E,2 | E,2- [B,,E,]2 [C,A,]2 [E,A,C]2 | [A,E]4 [C,A,]2 [A,,A,]2 | %3
 [E,A,E]2 [E,G,E]2 [E,G,E]3[K:treble] [G,B,E] |[M:3/4] [A,F]2[K:bass] [A,E]2 [A,E]2 | %5
[M:1/4] [E,G,D]2 |[M:4/4] E,2- [B,,E,]2 [C,A,]2 [E,A,C]2 | [A,E]4 [C,A,]2 [A,,A,]2 | %8
 [C,A,]3 [D,A,] [E,A,]2 [E,D]2 |[M:3/4] [A,C]6 |] %10
V:3
 x8 | C2 D2 E2 A2 | z2 E,2 [EA]2 [Ec]2 | x8 |[M:3/4] x6 |[M:1/4] x2 |[M:4/4] C2 D2 E2 A2 | %7
 z2 E,2 [EA]2 [Ec]2 | x8 |[M:3/4] x6 |] %10
V:4
 x8 | A,,2 z2 z4 | x8 | x7[K:treble] x |[M:3/4] x2[K:bass] x4 |[M:1/4] x2 |[M:4/4] A,,2 z2 z4 | %7
 x8 | x8 |[M:3/4] x6 |] %10

